copytrade/img/icomoon/phone.svg

<svg width="24" height="24" viewBox="0 0 24 24" fill="none" xmlns="http://www.w3.org/2000/svg">
<path fill-rule="evenodd" clip-rule="evenodd" d="M6.96833 4.21539C9.38653 3.40881 11.8302 4.92357 12.5089 7.37601L12.5089 7.37602C12.9715 9.04716 12.5334 10.7995 11.4653 11.9994C11.6841 12.2827 11.9231 12.5551 12.1826 12.8148C12.4408 13.0732 12.7116 13.3114 12.9932 13.5294C14.1926 12.4528 15.9502 12.0099 17.6262 12.4744L17.6262 12.4744C20.0782 13.1541 21.5901 15.5996 20.7848 18.0177C20.2564 19.6043 19.2711 20.5682 17.9571 20.8855C16.7361 21.1804 15.4196 20.867 14.2585 20.3843C11.9199 19.4121 9.61074 17.4973 8.55613 16.4419C7.47664 15.3616 5.57003 13.049 4.60671 10.7149C4.12834 9.55579 3.82033 8.24419 4.11584 7.0288C4.43378 5.72121 5.39283 4.74087 6.96833 4.21539ZM10.5814 7.90949C10.1687 6.41841 8.79749 5.7136 7.60116 6.11264L7.60114 6.11264C6.54954 6.46338 6.18482 6.98476 6.05922 7.50132C5.91121 8.11007 6.03992 8.94505 6.45545 9.95189C7.27992 11.9496 8.9898 14.0464 9.97088 15.0282C10.9282 15.9862 13.0228 17.7047 15.0262 18.5375C16.0361 18.9573 16.8752 19.0893 17.4876 18.9414C18.007 18.816 18.5331 18.4491 18.8872 17.3857L18.8872 17.3857C19.2866 16.1866 18.5807 14.8144 17.092 14.4018L17.3591 13.4381L17.092 14.4018C15.9841 14.0947 14.8451 14.4505 14.1672 15.1765C13.7294 15.6453 12.895 15.9125 12.1851 15.417C11.6855 15.0683 11.2111 14.6721 10.7679 14.2285C10.3239 13.7842 9.92751 13.3086 9.57877 12.808C9.08635 12.1011 9.3491 11.2699 9.81452 10.8311C10.5352 10.1517 10.8874 9.01518 10.5814 7.90949Z" fill="#A6ACB7"/>
</svg>

<svg width="24" height="24" fill="none" xmlns="http://www.w3.org/2000/svg"><path fill-rule="evenodd" clip-rule="evenodd" d="M6.968 4.215c2.419-.806 4.862.709 5.54 3.161.464 1.671.025 3.423-1.043 4.623a8.528 8.528 0 001.528 1.53c1.2-1.076 2.957-1.52 4.633-1.055 2.452.68 3.964 3.126 3.159 5.544-.529 1.586-1.514 2.55-2.828 2.867-1.22.295-2.537-.018-3.699-.5-2.338-.973-4.647-2.888-5.702-3.943-1.08-1.08-2.986-3.393-3.95-5.727-.478-1.16-.786-2.47-.49-3.686.318-1.308 1.277-2.288 2.852-2.814zm3.613 3.694c-.412-1.49-1.784-2.195-2.98-1.796-1.051.35-1.416.872-1.542 1.388-.148.61-.02 1.444.396 2.45.825 1.999 2.535 4.095 3.516 5.077.957.958 3.052 2.677 5.055 3.51 1.01.42 1.85.551 2.462.403.519-.125 1.045-.492 1.4-1.555.399-1.2-.307-2.572-1.796-2.984l.267-.964-.267.964c-1.108-.307-2.247.049-2.925.775-.438.468-1.272.736-1.982.24a10.486 10.486 0 01-2.606-2.609c-.493-.707-.23-1.538.236-1.977.72-.68 1.072-1.816.766-2.922z" fill="#A6ACB7"/></svg>
